X:38
T: Veress az ég tova felé
O: Trunk (Bákó), 1929
Q: 1/4=144
L:1/4
K:C
A/d/d/ c | A/d/d/ A z/ |
A/d/d/ c | c/A/G/ F/ z/ z/ |
c/A/G/ F z/ | F/G/A/ F z/ |
c/A/G/ F z/ | D/G/G/ D/ z/ z/ |

